X: 16383
T: Guy's
R: hornpipe
M: 4/4
K: Gdorian
|:dc|B2 G2 G2 dc|~B2 AB GABG|~A2 GA F2 Ac|fgag fdcA|
B2 G2 G2 dc|~B2 AB GABd|~F3 A c2 cB|AAGF G2:|
|:df|g2 gf ~d3 f|~g3f ~d3c|Bc de/f/ ecdB|~c3 _e d2 df|
g2 gf ~d3 f|gdgf ~d3B|~F3 A c2 cB|AAGF G2:|

